images/3073499.svg

<?xml version="1.0" encoding="UTF-8"?>
<svg xmlns="http://www.w3.org/2000/svg" xmlns:xlink="http://www.w3.org/1999/xlink" width="300pt" height="300pt" viewBox="0 0 300 300" version="1.1">
<defs>
<g>
<symbol overflow="visible" id="glyph0-0">
<path style="stroke:none;" d="M 0.453125 1.59375 L 0.453125 -6.34375 L 4.953125 -6.34375 L 4.953125 1.59375 Z M 0.953125 1.09375 L 4.453125 1.09375 L 4.453125 -5.84375 L 0.953125 -5.84375 Z M 0.953125 1.09375 "/>
</symbol>
<symbol overflow="visible" id="glyph0-1">
<path style="stroke:none;" d="M 0.890625 -6.5625 L 2.078125 -6.5625 L 4.984375 -1.078125 L 4.984375 -6.5625 L 5.84375 -6.5625 L 5.84375 0 L 4.65625 0 L 1.75 -5.484375 L 1.75 0 L 0.890625 0 Z M 0.890625 -6.5625 "/>
</symbol>
</g>
</defs>
<g id="surface39073">
<rect x="0" y="0" width="300" height="300" style="fill:rgb(100%,100%,100%);fill-opacity:1;stroke:none;"/>
<path style="fill:none;stroke-width:1.2;stroke-linecap:butt;stroke-linejoin:miter;stroke:rgb(0%,0%,0%);stroke-opacity:1;stroke-miterlimit:10;" d="M 35.785156 170.671875 L 60.410156 166.121094 "/>
<path style="fill:none;stroke-width:1.2;stroke-linecap:butt;stroke-linejoin:miter;stroke:rgb(0%,0%,0%);stroke-opacity:1;stroke-miterlimit:10;" d="M 34.714844 164.878906 L 59.339844 160.328125 "/>
<path style="fill:none;stroke-width:1.2;stroke-linecap:butt;stroke-linejoin:miter;stroke:rgb(0%,0%,0%);stroke-opacity:1;stroke-miterlimit:10;" d="M 59.875 163.226562 L 76.128906 182.277344 "/>
<path style="fill:none;stroke-width:1.2;stroke-linecap:butt;stroke-linejoin:miter;stroke:rgb(0%,0%,0%);stroke-opacity:1;stroke-miterlimit:10;" d="M 76.128906 182.277344 L 88.4375 180 "/>
<path style="fill:none;stroke-width:1.2;stroke-linecap:butt;stroke-linejoin:miter;stroke:rgb(0%,0%,100%);stroke-opacity:1;stroke-miterlimit:10;" d="M 88.4375 180 L 100.75 177.726562 "/>
<path style="fill:none;stroke-width:1.2;stroke-linecap:butt;stroke-linejoin:miter;stroke:rgb(0%,0%,100%);stroke-opacity:1;stroke-miterlimit:10;" d="M 100.75 177.726562 L 104.9375 165.925781 "/>
<path style="fill:none;stroke-width:1.2;stroke-linecap:butt;stroke-linejoin:miter;stroke:rgb(0%,0%,0%);stroke-opacity:1;stroke-miterlimit:10;" d="M 104.9375 165.925781 L 109.121094 154.125 "/>
<path style="fill:none;stroke-width:1.2;stroke-linecap:butt;stroke-linejoin:miter;stroke:rgb(0%,0%,0%);stroke-opacity:1;stroke-miterlimit:10;" d="M 117.003906 196.777344 L 108.878906 187.25 "/>
<path style="fill:none;stroke-width:1.2;stroke-linecap:butt;stroke-linejoin:miter;stroke:rgb(0%,0%,100%);stroke-opacity:1;stroke-miterlimit:10;" d="M 108.878906 187.25 L 100.75 177.726562 "/>
<path style=" stroke:none;fill-rule:nonzero;fill:rgb(100%,100%,100%);fill-opacity:1;" d="M 97.75 172.226562 L 104.75 172.226562 L 104.75 183.226562 L 97.75 183.226562 Z M 97.75 172.226562 "/>
<g style="fill:rgb(0%,0%,100%);fill-opacity:1;">
  <use xlink:href="#glyph0-1" x="97.75" y="180.889648"/>
</g>
<path style="fill:none;stroke-width:1.2;stroke-linecap:butt;stroke-linejoin:miter;stroke:rgb(0%,0%,0%);stroke-opacity:1;stroke-miterlimit:10;" d="M 109.121094 154.125 L 133.746094 149.574219 "/>
<path style="fill:none;stroke-width:1.2;stroke-linecap:butt;stroke-linejoin:miter;stroke:rgb(0%,0%,0%);stroke-opacity:1;stroke-miterlimit:10;" d="M 133.746094 149.574219 L 141.875 159.101562 "/>
<path style="fill:none;stroke-width:1.2;stroke-linecap:butt;stroke-linejoin:miter;stroke:rgb(0%,0%,100%);stroke-opacity:1;stroke-miterlimit:10;" d="M 141.875 159.101562 L 150 168.625 "/>
<path style="fill:none;stroke-width:1.2;stroke-linecap:butt;stroke-linejoin:miter;stroke:rgb(0%,0%,100%);stroke-opacity:1;stroke-miterlimit:10;" d="M 150 168.625 L 145.8125 180.425781 "/>
<path style="fill:none;stroke-width:1.2;stroke-linecap:butt;stroke-linejoin:miter;stroke:rgb(0%,0%,0%);stroke-opacity:1;stroke-miterlimit:10;" d="M 145.8125 180.425781 L 141.628906 192.226562 "/>
<path style="fill:none;stroke-width:1.2;stroke-linecap:butt;stroke-linejoin:miter;stroke:rgb(0%,0%,100%);stroke-opacity:1;stroke-miterlimit:10;" d="M 150 168.625 L 162.3125 166.351562 "/>
<path style="fill:none;stroke-width:1.2;stroke-linecap:butt;stroke-linejoin:miter;stroke:rgb(0%,0%,0%);stroke-opacity:1;stroke-miterlimit:10;" d="M 162.3125 166.351562 L 174.625 164.074219 "/>
<path style=" stroke:none;fill-rule:nonzero;fill:rgb(100%,100%,100%);fill-opacity:1;" d="M 147 163.125 L 154 163.125 L 154 174.125 L 147 174.125 Z M 147 163.125 "/>
<g style="fill:rgb(0%,0%,100%);fill-opacity:1;">
  <use xlink:href="#glyph0-1" x="147" y="171.788086"/>
</g>
<path style="fill:none;stroke-width:1.2;stroke-linecap:butt;stroke-linejoin:miter;stroke:rgb(0%,0%,0%);stroke-opacity:1;stroke-miterlimit:10;" d="M 141.628906 192.226562 L 117.003906 196.777344 "/>
<path style="fill:none;stroke-width:1.2;stroke-linecap:butt;stroke-linejoin:miter;stroke:rgb(0%,0%,0%);stroke-opacity:1;stroke-miterlimit:10;" d="M 174.625 164.074219 L 182.75 173.601562 "/>
<path style="fill:none;stroke-width:1.2;stroke-linecap:butt;stroke-linejoin:miter;stroke:rgb(0%,0%,100%);stroke-opacity:1;stroke-miterlimit:10;" d="M 182.75 173.601562 L 190.878906 183.125 "/>
<path style="fill:none;stroke-width:1.2;stroke-linecap:butt;stroke-linejoin:miter;stroke:rgb(0%,0%,0%);stroke-opacity:1;stroke-miterlimit:10;" d="M 180.730469 162.15625 L 187.234375 169.777344 "/>
<path style="fill:none;stroke-width:1.2;stroke-linecap:butt;stroke-linejoin:miter;stroke:rgb(0%,0%,100%);stroke-opacity:1;stroke-miterlimit:10;" d="M 187.234375 169.777344 L 193.734375 177.394531 "/>
<path style="fill:none;stroke-width:1.2;stroke-linecap:butt;stroke-linejoin:miter;stroke:rgb(0%,0%,0%);stroke-opacity:1;stroke-miterlimit:10;" d="M 182.996094 140.476562 L 174.625 164.074219 "/>
<path style="fill:none;stroke-width:1.2;stroke-linecap:butt;stroke-linejoin:miter;stroke:rgb(0%,0%,100%);stroke-opacity:1;stroke-miterlimit:10;" d="M 190.878906 183.125 L 203.1875 180.851562 "/>
<path style="fill:none;stroke-width:1.2;stroke-linecap:butt;stroke-linejoin:miter;stroke:rgb(0%,0%,0%);stroke-opacity:1;stroke-miterlimit:10;" d="M 203.1875 180.851562 L 215.5 178.574219 "/>
<path style=" stroke:none;fill-rule:nonzero;fill:rgb(100%,100%,100%);fill-opacity:1;" d="M 187.878906 177.625 L 194.878906 177.625 L 194.878906 188.625 L 187.878906 188.625 Z M 187.878906 177.625 "/>
<g style="fill:rgb(0%,0%,100%);fill-opacity:1;">
  <use xlink:href="#glyph0-1" x="187.878906" y="186.288086"/>
</g>
<path style="fill:none;stroke-width:1.2;stroke-linecap:butt;stroke-linejoin:miter;stroke:rgb(0%,0%,0%);stroke-opacity:1;stroke-miterlimit:10;" d="M 215.5 178.574219 L 231.753906 197.625 "/>
<path style="fill:none;stroke-width:1.2;stroke-linecap:butt;stroke-linejoin:miter;stroke:rgb(0%,0%,0%);stroke-opacity:1;stroke-miterlimit:10;" d="M 221.609375 176.65625 L 234.609375 191.894531 "/>
<path style="fill:none;stroke-width:1.2;stroke-linecap:butt;stroke-linejoin:miter;stroke:rgb(0%,0%,0%);stroke-opacity:1;stroke-miterlimit:10;" d="M 223.871094 154.976562 L 215.5 178.574219 "/>
<path style="fill:none;stroke-width:1.2;stroke-linecap:butt;stroke-linejoin:miter;stroke:rgb(0%,0%,0%);stroke-opacity:1;stroke-miterlimit:10;" d="M 231.753906 197.625 L 256.378906 193.074219 "/>
<path style="fill:none;stroke-width:1.2;stroke-linecap:butt;stroke-linejoin:miter;stroke:rgb(0%,0%,0%);stroke-opacity:1;stroke-miterlimit:10;" d="M 256.378906 193.074219 L 264.75 169.476562 "/>
<path style="fill:none;stroke-width:1.2;stroke-linecap:butt;stroke-linejoin:miter;stroke:rgb(0%,0%,0%);stroke-opacity:1;stroke-miterlimit:10;" d="M 251.664062 188.746094 L 258.359375 169.863281 "/>
<path style="fill:none;stroke-width:1.2;stroke-linecap:butt;stroke-linejoin:miter;stroke:rgb(0%,0%,0%);stroke-opacity:1;stroke-miterlimit:10;" d="M 264.75 169.476562 L 248.496094 150.425781 "/>
<path style="fill:none;stroke-width:1.2;stroke-linecap:butt;stroke-linejoin:miter;stroke:rgb(0%,0%,0%);stroke-opacity:1;stroke-miterlimit:10;" d="M 248.496094 150.425781 L 223.871094 154.976562 "/>
<path style="fill:none;stroke-width:1.2;stroke-linecap:butt;stroke-linejoin:miter;stroke:rgb(0%,0%,0%);stroke-opacity:1;stroke-miterlimit:10;" d="M 247.105469 156.671875 L 227.40625 160.3125 "/>
<path style="fill:none;stroke-width:1.2;stroke-linecap:butt;stroke-linejoin:miter;stroke:rgb(0%,0%,0%);stroke-opacity:1;stroke-miterlimit:10;" d="M 223.871094 154.976562 L 215.746094 145.449219 "/>
<path style="fill:none;stroke-width:1.2;stroke-linecap:butt;stroke-linejoin:miter;stroke:rgb(0%,0%,100%);stroke-opacity:1;stroke-miterlimit:10;" d="M 215.746094 145.449219 L 207.621094 135.925781 "/>
<path style="fill:none;stroke-width:1.2;stroke-linecap:butt;stroke-linejoin:miter;stroke:rgb(0%,0%,100%);stroke-opacity:1;stroke-miterlimit:10;" d="M 207.621094 135.925781 L 195.308594 138.199219 "/>
<path style="fill:none;stroke-width:1.2;stroke-linecap:butt;stroke-linejoin:miter;stroke:rgb(0%,0%,0%);stroke-opacity:1;stroke-miterlimit:10;" d="M 195.308594 138.199219 L 182.996094 140.476562 "/>
<path style="fill:none;stroke-width:1.2;stroke-linecap:butt;stroke-linejoin:miter;stroke:rgb(0%,0%,100%);stroke-opacity:1;stroke-miterlimit:10;" d="M 206.226562 142.171875 L 196.378906 143.992188 "/>
<path style="fill:none;stroke-width:1.2;stroke-linecap:butt;stroke-linejoin:miter;stroke:rgb(0%,0%,0%);stroke-opacity:1;stroke-miterlimit:10;" d="M 196.378906 143.992188 L 186.527344 145.8125 "/>
<path style=" stroke:none;fill-rule:nonzero;fill:rgb(100%,100%,100%);fill-opacity:1;" d="M 204.621094 130.425781 L 211.621094 130.425781 L 211.621094 141.425781 L 204.621094 141.425781 Z M 204.621094 130.425781 "/>
<g style="fill:rgb(0%,0%,100%);fill-opacity:1;">
  <use xlink:href="#glyph0-1" x="204.621094" y="139.088867"/>
</g>
<path style="fill:none;stroke-width:1.2;stroke-linecap:butt;stroke-linejoin:miter;stroke:rgb(0%,0%,0%);stroke-opacity:1;stroke-miterlimit:10;" d="M 182.996094 140.476562 L 166.742188 121.425781 "/>
<path style="fill:none;stroke-width:1.2;stroke-linecap:butt;stroke-linejoin:miter;stroke:rgb(0%,0%,0%);stroke-opacity:1;stroke-miterlimit:10;" d="M 166.742188 121.425781 L 158.617188 111.898438 "/>
<path style="fill:none;stroke-width:1.2;stroke-linecap:butt;stroke-linejoin:miter;stroke:rgb(0%,0%,100%);stroke-opacity:1;stroke-miterlimit:10;" d="M 158.617188 111.898438 L 150.492188 102.375 "/>
<path style="fill:none;stroke-width:1.2;stroke-linecap:butt;stroke-linejoin:miter;stroke:rgb(0%,0%,0%);stroke-opacity:1;stroke-miterlimit:10;" d="M 169.601562 115.695312 L 163.097656 108.074219 "/>
<path style="fill:none;stroke-width:1.2;stroke-linecap:butt;stroke-linejoin:miter;stroke:rgb(0%,0%,100%);stroke-opacity:1;stroke-miterlimit:10;" d="M 163.097656 108.074219 L 156.597656 100.457031 "/>
<path style="fill:none;stroke-width:1.2;stroke-linecap:butt;stroke-linejoin:miter;stroke:rgb(0%,0%,0%);stroke-opacity:1;stroke-miterlimit:10;" d="M 160.636719 123.34375 L 154.132812 115.722656 "/>
<path style="fill:none;stroke-width:1.2;stroke-linecap:butt;stroke-linejoin:miter;stroke:rgb(0%,0%,100%);stroke-opacity:1;stroke-miterlimit:10;" d="M 154.132812 115.722656 L 147.632812 108.105469 "/>
<path style=" stroke:none;fill-rule:nonzero;fill:rgb(100%,100%,100%);fill-opacity:1;" d="M 143.492188 96.875 L 150.492188 96.875 L 150.492188 107.875 L 143.492188 107.875 Z M 143.492188 96.875 "/>
<g style="fill:rgb(0%,0%,100%);fill-opacity:1;">
  <use xlink:href="#glyph0-1" x="143.492188" y="105.538086"/>
</g>
</g>
</svg>

<svg xmlns="http://www.w3.org/2000/svg" xmlns:xlink="http://www.w3.org/1999/xlink" width="300pt" height="300pt" viewBox="0 0 300 300"><defs><symbol overflow="visible"><path d="M.453 1.594v-7.938h4.5v7.938zm.5-.5h3.5v-6.938h-3.5zm0 0"/></symbol><symbol overflow="visible" id="a"><path d="M.89-6.563H2.08l2.906 5.485v-5.484h.86V0H4.656L1.75-5.484V0H.89zm0 0"/></symbol></defs><g><path fill="#fff" d="M0 0h300v300H0z"/><path d="M35.785 170.672l24.625-4.55M34.715 164.88l24.625-4.552M59.875 163.227l16.254 19.05M76.13 182.277L88.437 180" stroke-width="1.2" stroke="#000" stroke-miterlimit="10" fill="none"/><path d="M88.438 180l12.312-2.273M100.75 177.727l4.188-11.8" stroke-width="1.2" stroke="#00f" stroke-miterlimit="10" fill="none"/><path d="M104.938 165.926l4.183-11.8M117.004 196.777l-8.125-9.527" stroke-width="1.2" stroke="#000" stroke-miterlimit="10" fill="none"/><path d="M108.88 187.25l-8.13-9.523" stroke-width="1.2" stroke="#00f" stroke-miterlimit="10" fill="none"/><path d="M97.75 172.227h7v11h-7zm0 0" fill="#fff"/><use xlink:href="#a" x="97.75" y="180.89" fill="#00f"/><path d="M109.12 154.125l24.626-4.55M133.746 149.574l8.13 9.528" stroke-width="1.2" stroke="#000" stroke-miterlimit="10" fill="none"/><path d="M141.875 159.102l8.125 9.523M150 168.625l-4.188 11.8" stroke-width="1.2" stroke="#00f" stroke-miterlimit="10" fill="none"/><path d="M145.813 180.426l-4.184 11.8" stroke-width="1.2" stroke="#000" stroke-miterlimit="10" fill="none"/><path d="M150 168.625l12.313-2.273" stroke-width="1.2" stroke="#00f" stroke-miterlimit="10" fill="none"/><path d="M162.313 166.352l12.312-2.278" stroke-width="1.2" stroke="#000" stroke-miterlimit="10" fill="none"/><path d="M147 163.125h7v11h-7zm0 0" fill="#fff"/><use xlink:href="#a" x="147" y="171.788" fill="#00f"/><path d="M141.63 192.227l-24.626 4.55M174.625 164.074l8.125 9.528" stroke-width="1.2" stroke="#000" stroke-miterlimit="10" fill="none"/><path d="M182.75 173.602l8.13 9.523" stroke-width="1.2" stroke="#00f" stroke-miterlimit="10" fill="none"/><path d="M180.73 162.156l6.504 7.62" stroke-width="1.2" stroke="#000" stroke-miterlimit="10" fill="none"/><path d="M187.234 169.777l6.5 7.618" stroke-width="1.2" stroke="#00f" stroke-miterlimit="10" fill="none"/><path d="M182.996 140.477l-8.37 23.597" stroke-width="1.2" stroke="#000" stroke-miterlimit="10" fill="none"/><path d="M190.88 183.125l12.308-2.273" stroke-width="1.2" stroke="#00f" stroke-miterlimit="10" fill="none"/><path d="M203.188 180.852l12.312-2.278" stroke-width="1.2" stroke="#000" stroke-miterlimit="10" fill="none"/><path d="M187.88 177.625h7v11h-7zm0 0" fill="#fff"/><use xlink:href="#a" x="187.879" y="186.288" fill="#00f"/><path d="M215.5 178.574l16.254 19.05M221.61 176.656l13 15.24M223.87 154.977l-8.37 23.597M231.754 197.625l24.625-4.55M256.38 193.074l8.37-23.597M251.664 188.746l6.695-18.883M264.75 169.477l-16.254-19.05M248.496 150.426l-24.625 4.55M247.105 156.672l-19.7 3.64M223.87 154.977l-8.124-9.528" stroke-width="1.2" stroke="#000" stroke-miterlimit="10" fill="none"/><path d="M215.746 145.45l-8.125-9.524M207.62 135.926l-12.31 2.273" stroke-width="1.2" stroke="#00f" stroke-miterlimit="10" fill="none"/><path d="M195.31 138.2l-12.314 2.277" stroke-width="1.2" stroke="#000" stroke-miterlimit="10" fill="none"/><path d="M206.227 142.172l-9.848 1.82" stroke-width="1.2" stroke="#00f" stroke-miterlimit="10" fill="none"/><path d="M196.38 143.992l-9.853 1.82" stroke-width="1.2" stroke="#000" stroke-miterlimit="10" fill="none"/><path d="M204.62 130.426h7v11h-7zm0 0" fill="#fff"/><use xlink:href="#a" x="204.621" y="139.089" fill="#00f"/><path d="M182.996 140.477l-16.254-19.05M166.742 121.426l-8.125-9.528" stroke-width="1.2" stroke="#000" stroke-miterlimit="10" fill="none"/><path d="M158.617 111.898l-8.125-9.523" stroke-width="1.2" stroke="#00f" stroke-miterlimit="10" fill="none"/><path d="M169.602 115.695l-6.504-7.62" stroke-width="1.2" stroke="#000" stroke-miterlimit="10" fill="none"/><path d="M163.098 108.074l-6.5-7.617" stroke-width="1.2" stroke="#00f" stroke-miterlimit="10" fill="none"/><path d="M160.637 123.344l-6.504-7.62" stroke-width="1.2" stroke="#000" stroke-miterlimit="10" fill="none"/><path d="M154.133 115.723l-6.5-7.618" stroke-width="1.2" stroke="#00f" stroke-miterlimit="10" fill="none"/><path d="M143.492 96.875h7v11h-7zm0 0" fill="#fff"/><use xlink:href="#a" x="143.492" y="105.538" fill="#00f"/></g></svg>
